img/footer_message1.svg

<svg width="22" height="14" viewBox="0 0 22 14" fill="none" xmlns="http://www.w3.org/2000/svg">
<path fill-rule="evenodd" clip-rule="evenodd" d="M21.4935 1.37237C21.6482 0.85921 21.4935 0.5 20.7713 0.5H18.364C17.745 0.5 17.4699 0.825 17.3151 1.18421C17.3151 1.18421 16.0943 4.16053 14.3576 6.07632C13.7902 6.64079 13.5495 6.81184 13.24 6.81184C13.0852 6.81184 12.8617 6.64079 12.8617 6.12763V1.37237C12.8617 0.756579 12.6897 0.5 12.1739 0.5H8.39105C8.01276 0.5 7.77204 0.790789 7.77204 1.04737C7.77204 1.62895 8.63178 1.76579 8.73494 3.37368V6.89737C8.73494 7.66711 8.59739 7.80395 8.28788 7.80395C7.47973 7.80395 5.48513 4.82763 4.31589 1.40658C4.07516 0.773685 3.85163 0.5 3.23262 0.5H0.825349C0.137558 0.5 0 0.825 0 1.18421C0 1.81711 0.808154 4.96447 3.80004 9.12105C5.79464 11.9605 8.59739 13.5 11.1422 13.5C12.6725 13.5 12.8617 13.1579 12.8617 12.5763V10.4211C12.8617 9.73684 12.9992 9.6 13.4979 9.6C13.859 9.6 14.4608 9.77105 15.888 11.1395C17.5215 12.7645 17.7966 13.5 18.7079 13.5H21.1152C21.803 13.5 22.1469 13.1579 21.9405 12.4908C21.717 11.8237 20.9432 10.8487 19.9115 9.68553C19.3441 9.01842 18.5016 8.31711 18.2608 7.95789C17.8998 7.49605 18.0029 7.29079 18.2608 6.89737C18.2608 6.88026 21.2012 2.775 21.4935 1.37237Z" fill="#FC6733"/>
</svg>

<svg width="22" height="14" viewBox="0 0 22 14" fill="none" xmlns="http://www.w3.org/2000/svg"><path fill-rule="evenodd" clip-rule="evenodd" d="M21.494 1.372c.154-.513 0-.872-.723-.872h-2.407c-.619 0-.894.325-1.049.684 0 0-1.22 2.977-2.957 4.892-.568.565-.809.736-1.118.736-.155 0-.378-.171-.378-.684V1.372c0-.615-.172-.872-.688-.872H8.39c-.378 0-.619.29-.619.547 0 .582.86.719.963 2.327v3.523c0 .77-.138.907-.447.907-.808 0-2.803-2.976-3.972-6.397C4.076.774 3.852.5 3.233.5H.825C.138.5 0 .825 0 1.184c0 .633.808 3.78 3.8 7.937 1.995 2.84 4.797 4.379 7.342 4.379 1.53 0 1.72-.342 1.72-.924v-2.155c0-.684.137-.821.636-.821.361 0 .963.171 2.39 1.54 1.633 1.624 1.909 2.36 2.82 2.36h2.407c.688 0 1.032-.342.826-1.01-.224-.666-.998-1.641-2.03-2.804-.567-.668-1.41-1.369-1.65-1.728-.361-.462-.258-.667 0-1.06 0-.018 2.94-4.123 3.233-5.526z" fill="#FC6733"/></svg>
